X: 27921
T: Mountain Road, The
R: reel
M: 4/4
K: Dmajor
"D"F2AF BFAF|F2AF "G"EF"Asus"DE|"D"F2AF BFAF|"G"G2FG EF"Asus"DE|
"D"F2AF BFAF|F2AF "G"EFDE|"D"FAA2 BAFB|ABde "A"fddc||
"D"d3B ADFA|dcde "G"fgfe|"D"dcdB ADFA|"G"G2FG EF"A"Dc|
"D"dcdB ADFA|dcde "G"fgfe|"D"dcdB ADFA|"G"G2FG "A"EFDE||

